icon-themes/breeze_svg/cmd/sc_beziermove.svg

<svg viewBox="0 0 16 16" xmlns="http://www.w3.org/2000/svg">/&gt;<path d="m3.5 2c-.8284271 0-1.5.6715729-1.5 1.5 0 .6558381.413588 1.2024102 1 1.40625v.09375 1 5h-1v3h3v-1-1-1h-1v-5-1-.09375c.4320931-.1501977.7560523-.4741569.90625-.90625h.09375 1 5v1h1 1 1v-3h-3v1h-5-1-.09375c-.2038398-.586412-.7504119-1-1.40625-1zm0 1c.2761424 0 .5.2238576.5.5s-.2238576.5-.5.5-.5-.2238576-.5-.5.2238576-.5.5-.5zm8.5 0h1v1h-1zm-6 2v6.125l1.2695312-.625 1.53125 1.5-.1601562-2.0996094 1.359375-.5253906zm-3 7h1v1h-1z" fill="#4d4d4d"/></svg>

<svg xmlns="http://www.w3.org/2000/svg" viewBox="0 0 16 16">
     />
 <path 
     style="fill:#4d4d4d" 
     d="M 3.5 2 C 2.6715729 2 2 2.6715729 2 3.5 C 2 4.1558381 2.413588 4.7024102 3 4.90625 L 3 5 L 3 6 L 3 11 L 2 11 L 2 14 L 5 14 L 5 13 L 5 12 L 5 11 L 4 11 L 4 6 L 4 5 L 4 4.90625 C 4.4320931 4.7560523 4.7560523 4.4320931 4.90625 4 L 5 4 L 6 4 L 11 4 L 11 5 L 12 5 L 13 5 L 14 5 L 14 2 L 11 2 L 11 3 L 6 3 L 5 3 L 4.90625 3 C 4.7024102 2.413588 4.1558381 2 3.5 2 z M 3.5 3 C 3.7761424 3 4 3.2238576 4 3.5 C 4 3.7761424 3.7761424 4 3.5 4 C 3.2238576 4 3 3.7761424 3 3.5 C 3 3.2238576 3.2238576 3 3.5 3 z M 12 3 L 13 3 L 13 4 L 12 4 L 12 3 z M 6 5 L 6 11.125 L 7.2695312 10.5 L 8.8007812 12 L 8.640625 9.9003906 L 10 9.375 L 6 5 z M 3 12 L 4 12 L 4 13 L 3 13 L 3 12 z "
     />
 </svg>
